img/image/design/pointer.svg

<svg xmlns="http://www.w3.org/2000/svg" fill="none" viewBox="0.65 0.12 17.56 21.95">
<path fill-rule="evenodd" clip-rule="evenodd" d="M9.42719 22.0684C9.42719 22.0684 18.2073 11.6102 18.2073 7.5215C18.2073 3.43275 14.2763 0.118164 9.42719 0.118164C4.57808 0.118164 0.647095 3.43275 0.647095 7.5215C0.647095 11.6102 9.42719 22.0684 9.42719 22.0684ZM9.20772 8.89808C11.0261 8.89808 12.5003 7.66964 12.5003 6.15429C12.5003 4.63895 11.0261 3.41051 9.20772 3.41051C7.3893 3.41051 5.91518 4.63895 5.91518 6.15429C5.91518 7.66964 7.3893 8.89808 9.20772 8.89808Z" fill="#F6BB1A"/>
</svg>

<svg xmlns="http://www.w3.org/2000/svg" fill="none" viewBox="0.65 0.12 17.56 21.95"><path fill-rule="evenodd" clip-rule="evenodd" d="M9.427 22.068s8.78-10.458 8.78-14.547c0-4.088-3.93-7.403-8.78-7.403-4.849 0-8.78 3.315-8.78 7.403 0 4.09 8.78 14.547 8.78 14.547Zm-.22-13.17c1.82 0 3.293-1.228 3.293-2.744 0-1.515-1.474-2.743-3.292-2.743-1.819 0-3.293 1.228-3.293 2.743 0 1.516 1.474 2.744 3.293 2.744Z" fill="#F6BB1A"/></svg>
